!!!ONB: MCCC : ILB0179_02 : Extracted Monophonic Melody
!!!COM: Beethoven, Ludwig van
!!!OPR: Piano Sonata No.18
!!!OMV: 2
!!!SCT: Op.31 No.3
!!!ODT: 1801///
**kern
*thru
*staff1
*Ipiano
*>I
*clefF4
*k[b-e-a-d-]
*A-:
*M2/4
*MM100
=1
4.c
8d-
=2
4.e-
[8f
=3
*>A
8f]
8e-
8c
8A-
=4
[4B-
16B-]
16G
16A-
16B-
=5
4.c
8d-
=6
4.e-
[8f
=7
8f]
8e-
8c
8A-
=8
4B-
8A-
8aa-
=9
4bb-
8aa-
8cc
=10
8..b-
32a-
8g
8f
=11
4e
8r
8f
=12
8..g
32f
8e
8d
=13
4c
8r
16.r
32c
=14
8c
16.r
32c
8c
16.r
32c
=15
8c
8r
8r
16.r
32d-
=16
8d-
16.r
32d-
8d-
16.r
32d-
=17
8d-
8r
8r
16.r
32d-
=18
4d-
8B-
8G
=19
4.E-
40E-
40F
40G
40A-
40B-
=20
4.c
8d-
=21
4.e-
[8f
=22
8f]
8e-
8c
8A-
=23
[4B-
16B-]
16G
16A-
16B-
=24
4.c
8d-
=25
4.e-
[8f
=26
8f]
8e-
8c
8A-
=27
4B-
8A-
8aa-
=28
4bb-
8aa-
8ccc
=29
8..bb-
32aa-
8gg
8ff
=30
4ee
8r
8ff
=31
8..gg
32ff
8ee
8dd
=32
4cc
8r
16.r
32cc
=33
8cc
16.r
32cc
8cc
16.r
32cc
=34
8cc
8r
8r
16.r
32fff
=35
8fff
16f
16a
16g
16b-
16e
16g
=36
16f
16a
16f
16a
16g
16b-
16e
16g
=37
16f
16a
16cc
16a
16a
16cc
16ee-
16cc
=38
16cc
16ee-
16gg-
16ee-
16dd-
16ff
16cc
16ff
=39
8bb-
16b-
16dd
16cc
16ee-
16a
16cc
=40
16b-
16dd
16b-
16dd
16cc
16ee-
16a
16cc
=41
16b-
16dd
16ff
16dd
16dd
16ff
16aa-
16ff
=42
16ff
16aa-
16ccc-
16aa-
16ccc-
16ddd
16fff
16ddd
=43
16fff
16ddd
16fff
16ddd
16fff
16ddd
16fff
16ddd
=44
16fff
16ddd
16fff
16ddd
16eee-
16bb-
16gg
16ee-
=45
16dd
16ddd
16fff
16ddd
16fff
16ddd
16fff
16ddd
=46
16fff
16ddd
16fff
16ddd
16eee-
16bb-
16gg
16ee-
=47
16dd
16ddd
16fff
16ddd
16eee-
16bb-
16gg
16ee-
=48
16dd
16ddd
16fff
16ddd
16eee-
16bb-
16gg
16ee-
=49
16cc
16a-
16e-
16c
4r
=50
8E-
16r
16b-
8g
16r
16ee-
=51
8b-
16r
16gg
16dd
16aa-
16ff
16dd
=52
8ee-
16r
16b-
8g
16r
16ee-
=53
8b-
16r
16gg
16dd
16aa-
16ff
16dd
=54
8ee-
16r
16eee-
16ddd
16fff
16ddd
16fff
=55
8eee-
16r
16gg
16dd
16aa-
16ff
16dd
=56
16ee-
16gg
16b-
16ee-
16g
16b-
16a-
16f
=57
16e-
16g
16B-
16e-
16G
16B-
16A-
16F
=58
16E-
16G
16BB-
16E-
16r
16BB-
16GG
16BB-
=59
16r
16BB-
16GG
16BB-
16r
16BB-
16GG
16BB-
=60
16r
16BB
16GG
16BB
16r
16BB
16GG
16BB
=61
16r
16BB
16GG
16BB
16r
16BB
16GG
16BB
=62
*>A1
4.c
8d-
=63
4.e-
8f
=64
*>A
8d-
8e-
8c
8A-
=65
[4B-
16B-]
16G
16A-
16B-
=66
4.c
8d-
=67
4.e-
[8f
=68
8f]
8e-
8c
8A-
=69
4B-
8A-
8aa-
=70
4bb-
8aa-
8cc
=71
8..b-
32a-
8g
8f
=72
4e
8r
8f
=73
8..g
32f
8e
8d
=74
4c
8r
16.r
32c
=75
8c
16.r
32c
8c
16.r
32c
=76
8c
8r
8r
16.r
32d-
=77
8d-
16.r
32d-
8d-
16.r
32d-
=78
8d-
8r
8r
16.r
32d-
=79
4d-
8B-
8G
=80
4.E-
40E-
40F
40G
40A-
40B-
=81
4.c
8d-
=82
4.e-
[8f
=83
8f]
8e-
8c
8A-
=84
[4B-
16B-]
16G
16A-
16B-
=85
4.c
8d-
=86
4.e-
[8f
=87
8f]
8e-
8c
8A-
=88
4B-
8A-
8aa-
=89
4bb-
8aa-
8ccc
=90
8..bb-
32aa-
8gg
8ff
=91
4ee
8r
8ff
=92
8..gg
32ff
8ee
8dd
=93
4cc
8r
16.r
32cc
=94
8cc
16.r
32cc
8cc
16.r
32cc
=95
8cc
8r
8r
16.r
32fff
=96
8fff
16f
16a
16g
16b-
16e
16g
=97
16f
16a
16f
16a
16g
16b-
16e
16g
=98
16f
16a
16cc
16a
16a
16cc
16ee-
16cc
=99
16cc
16ee-
16gg-
16ee-
16dd-
16ff
16cc
16ff
=100
8bb-
16b-
16dd
16cc
16ee-
16a
16cc
=101
16b-
16dd
16b-
16dd
16cc
16ee-
16a
16cc
=102
16b-
16dd
16ff
16dd
16dd
16ff
16aa-
16ff
=103
16ff
16aa-
16ccc-
16aa-
16ccc-
16ddd
16fff
16ddd
=104
16fff
16ddd
16fff
16ddd
16fff
16ddd
16fff
16ddd
=105
16fff
16ddd
16fff
16ddd
16eee-
16bb-
16gg
16ee-
=106
16dd
16ddd
16fff
16ddd
16fff
16ddd
16fff
16ddd
=107
16fff
16ddd
16fff
16ddd
16eee-
16bb-
16gg
16ee-
=108
16dd
16ddd
16fff
16ddd
16eee-
16bb-
16gg
16ee-
=109
16dd
16ddd
16fff
16ddd
16eee-
16bb-
16gg
16ee-
=110
16cc
16a-
16e-
16c
4r
=111
8E-
16r
16b-
8g
16r
16ee-
=112
8b-
16r
16gg
16dd
16aa-
16ff
16dd
=113
8ee-
16r
16b-
8g
16r
16ee-
=114
8b-
16r
16gg
16dd
16aa-
16ff
16dd
=115
8ee-
16r
16eee-
16ddd
16fff
16ddd
16fff
=116
8eee-
16r
16gg
16dd
16aa-
16ff
16dd
=117
16ee-
16gg
16b-
16ee-
16g
16b-
16a-
16f
=118
16e-
16g
16B-
16e-
16G
16B-
16A-
16F
=119
16E-
16G
16BB-
16E-
16r
16BB-
16GG
16BB-
=120
16r
16BB-
16GG
16BB-
16r
16BB-
16GG
16BB-
=121
16r
16BB
16GG
16BB
16r
16BB
16GG
16BB
=122
16r
16BB
16GG
16BB
16r
16BB
16GG
16BB
=123
*>A2
16r
16C
16GG
16C
16r
16C
16GG
16C
=124
16r
16C
16GG
16C
16r
16C
16GG
16C
=125
*>B
4.a
8b-
=126
4.cc
[8dd
=127
8dd]
8cc
8a
8f
=128
[4g
16g]
16e
16f
16g
=129
4.a
8b-
=130
4.cc
8dd-
=131
16ee-
16aa
16ccc
16aa
16ccc
16aa
16ccc
16aa
=132
16ccc
16aa
16ccc
16aa
16bb-
16ff
16dd-
16b-
=133
16a
16aa
16ccc
16aa
16ccc
16aa
16ccc
16aa
=134
16ccc
16aa
16ccc
16aa
16bb-
16ff
16dd-
16b-
=135
16b
16bb
16ddd
16bb
16ccc
16gg
16ee-
16cc
=136
16b
16bb
16ddd
16bb
16ccc
16gg
16ee-
16cc
=137
16gg
16ee-
16cc
16g
16ee-
16cc
16g
16e-
=138
16cc
16g
16e-
16c
16g
16e-
16c
16G
=139
16e-
16c
16G
16E-
16c
16G
16E-
16C
=140
16GG
16G
16B
16G
16c
16G
16E-
16C
=141
16GG
16G
16B
16G
16c
16G
16E-
16C
=142
16GG
16AA
16BB-
16C
16D
16E
16F
16F#
=143
16G
16A
16B-
16B
16c
16c#
16d
16d#
=144
4.e
8f
=145
4.g
[8a
=146
8a]
8g
8e
8c
=147
4.d
40g
40a
40b
40cc
40dd
=148
4.ee
8ff
=149
4.gg
48cc
48dd
48ee
48ff
48gg
48aa-
=150
4.bb-
8ccc
=151
8ddd-
16r
64gg
64aa-
64bb-
64ccc
8ddd-
16r
64g
64a-
64b-
64cc
=152
8dd-
16r
64GG
64AA-
64BB-
64C
8D-
16r
64D-
64C
64BB-
64AA-
=153
8GG
16r
64gg
64aa-
64bb-
64ccc
8ddd-
16r
64g
64a-
64b-
64cc
=154
8dd-
16r
64GG
64AA-
64BB-
64C
8D-
16r
64D-
64C
64BB-
64AA-
=155
8GG
16r
64GG
64AA-
64BB-
64C
8D-
16r
64D-
64C
64BB-
64AA-
=156
8GG
16r
64GG
64AA-
64BB-
64C
8D-
16r
64D-
64C
64BB-
64AA-
=157
16GG
16r
16B-
16A-
16G
16F
16E-
16D
=158
16E-
16r
16d-
16c
16B-
16A-
16G
16F
=159
16E-
16r
16bb-
16aa-
16gg
16ff
16ee-
16dd
=160
16ee-
16r
16ddd-
16ccc
16bb-
16aa-
16gg
16ff
=161
16ee-
16r
16ddd-
16ccc
16bb-
16aa-
16gg
16ff
=162
16ee-
16dd
16dd-
16cc
16b-
16a-
16g
16f
=163
16e-
16d
16d-
16c
4r
=164
16r
16r
8r
4r
=165
2r
=166
2r
=167
4.c
8d-
=168
4.e-
[8f
=169
8f]
8e-
8c
8A-
=170
[4B-
16B-]
16G
16A-
16B-
=171
4.c
8d-
=172
4.e-
[8f
=173
8f]
8e-
8c
8A-
=174
4B-
8A-
8aa-
=175
4bb-
8aa-
8cc
=176
8..b-
32a-
8g
8f
=177
4e
8r
8f
=178
8..g
32f
8e
8d
=179
4c
8r
16.r
32c
=180
8c
16.r
32c
8c
16.r
32c
=181
8c
8r
8r
16.r
32d-
=182
8d-
16.r
32d-
8d-
16.r
32d-
=183
8d-
8r
8r
16.r
32d-
=184
4d-
8B-
8G
=185
4.E-
40E-
40F
40G
40A-
40B-
=186
4c[
16c]
16B
16c
16d-
=187
4e-[
16e-]
16d
16e-
16f
=188
8d-
8e-
8c
8A-
=189
[4B-
16B-]
16G
16A-
16B-
=190
8.c
16B
16c
16B
16c
16d-
=191
8.e-
16d
16e-
16d
16e-
16f
=192
8d-
8e-
8c
8A-
=193
4B-
8A-
8aa-
=194
4bb-
8aa-
8ccc
=195
8..bb-
32aa-
8gg
8ff
=196
4ee
8r
8ff
=197
8..gg
32ff
8ee
8dd
=198
4cc
8r
16r
16cc
=199
8cc
16.r
32cc
8cc
16.r
32cc
=200
8cc
8r
8r
16.r
32ddd-
=201
8ddd-
16g-
16b-
16a-
16cc-
16f
16a-
=202
16g-
16b-
16g-
16b-
16a-
16cc-
16f
16a-
=203
16g-
16b-
16dd-
16b-
16dd-
16gg-
16bb-
16gg-
=204
16bb-
16ccc-
16ddd-
16ccc-
16bb-
16ccc-
16bb-
16aa-
=205
8eee-
16e-
16g
16f
16a-
16d
16f
=206
16e-
16g
16e-
16g
16f
16a-
16d
16f
=207
16e-
16g
16b-
16g
16b-
16dd-
16ee
16dd-
=208
16ee
16gg
16bb-
16gg
16bb-
16gg
16bb-
16gg
=209
16bb-
16gg
16bb-
16gg
16bb-
16gg
16bb-
16gg
=210
16bb-
16gg
16bb-
16gg
16aa-
16ee-
16cc
16a-
=211
16g
16gg
16bb-
16gg
16bb-
16gg
16bb-
16gg
=212
16bb-
16gg
16bb-
16gg
16aa-
16ee-
16cc
16a-
=213
16g
16gg
16bb-
16gg
16aa-
16ee-
16cc
16a-
=214
16g
16gg
16bb-
16gg
16aa-
16ee-
16cc
16a-
=215
16f
16d-
16A-
16F
4r
=216
8A-
16r
16e-
8c
16r
16a-
=217
8e-
16r
16cc
16g
16dd-
16b-
16g
=218
8a-
16r
16ee-
8cc
16r
16aa-
=219
8ee-
16r
16ccc
16gg
16ddd-
16bb-
16gg
=220
8aa-
16r
16cc
16g
16dd-
16b-
16g
=221
8a-
16r
16ccc
16gg
16ddd-
16bb-
16gg
=222
16aa-
16ccc
16ee-
16aa-
16cc
16ee-
16dd-
16b-
=223
16a-
16cc
16e-
16a-
16c
16e-
16d-
16B-
=224
16A-
16B
16c
16G
16A-
16E
16F
16C
=225
16D-
16c
16d-
16A
16B-
16F#
16G
16D
=226
16E-
16F
16G
16A-
16B-
16c
16d-
16e-
=227
16f
16g
16a-
16b-
16cc
16g
16a-
16e
=228
16f
16c
16d-
16A
16B-
16c
16d-
16d
=229
8e-
8r
8E-
8r
=230
8AA-
8r
8eee-
8r
=231
8aa-
8r
8ee-
8ee-
=232
8a-
8r
4r
==
*-
